src/pos-icons/meditation.svg

<svg height="24" viewBox="0 0 24 24" width="24" xmlns="http://www.w3.org/2000/svg"><path d="m12 2c-1.1 0-2 .9-2 2 0 1.11.9 2 2 2 1.11 0 2-.89 2-2 0-1.1-.89-2-2-2m-1 5-3.6 3.59-2.11-2.12-1.42 1.42 2.83 2.83c.39.39 1.02.39 1.41 0l1.89-1.89v4.17h-2c-.55 0-1 .45-1 1v1l3.04 1.8-2.04 1.2 1 1.73 3-1.77 3 1.77 1-1.73-2.03-1.2 3.03-1.8v-1c0-.55-.45-1-1-1h-2v-4.17l1.89 1.89c.38.39 1.02.39 1.41 0l2.83-2.83-1.42-1.42-2.12 2.12-3.59-3.59z"/></svg>

<?xml version="1.0" encoding="UTF-8"?><!DOCTYPE svg PUBLIC "-//W3C//DTD SVG 1.1//EN" "http://www.w3.org/Graphics/SVG/1.1/DTD/svg11.dtd"><svg xmlns="http://www.w3.org/2000/svg" xmlns:xlink="http://www.w3.org/1999/xlink" version="1.1" id="mdi-meditation" width="24" height="24" viewBox="0 0 24 24"><path d="M12 2C10.9 2 10 2.9 10 4C10 5.11 10.9 6 12 6C13.11 6 14 5.11 14 4C14 2.9 13.11 2 12 2M11 7L7.4 10.59L5.29 8.47L3.87 9.89L6.7 12.72C7.09 13.11 7.72 13.11 8.11 12.72L10 10.83V15H8C7.45 15 7 15.45 7 16V17L10.04 18.8L8 20L9 21.73L12 19.96L15 21.73L16 20L13.97 18.8L17 17V16C17 15.45 16.55 15 16 15H14V10.83L15.89 12.72C16.27 13.11 16.91 13.11 17.3 12.72L20.13 9.89L18.71 8.47L16.59 10.59L13 7H11V7Z" /></svg>
